X: 201048
T: Terry Teahan's ("#3")
T: Murphy's
S: "ITM Session Tunes vol 2" ("Sully")
Z: B.Black
L: 1/8
M: 12/8
R: slide
K: G
e3 B2A GFE B2E|FED A2D d2D A2D|
e3 B2A GFE B2E|FED F2A F2E E3 :|
B2e ede f2a afa|baf a2f e2d B2A|
B2e ede f2a afa|baf a2f e3 e2d|
B2e ede f2a afa|baf a2f e2d B2A|
faf f2e ded B2A|FED F2A F2E E3 ||
